X:137
T:Walkalong, My Rosie
M:2/4
L:1/8
K:G
B|\
AG GB|AG GB|AG EB|AG EB|
AG GB|AG Gz|E>D D>D|EG2||
